src/assets/icons/weeks,fancy,10.svg

<svg width="48" height="48" viewBox="0 0 48 48" fill="none" xmlns="http://www.w3.org/2000/svg">
<rect opacity="0.2" x="4" y="6" width="40" height="40" rx="4" fill="black"/>
<path d="M18.0217 20.6364H13.9748L8.93359 23.8281V27.6463L13.5969 24.723H13.7163V41H18.0217V20.6364ZM30.8459 41.4474C35.9666 41.4474 39.0589 37.5497 39.0689 30.8381C39.0788 24.1761 35.9467 20.358 30.8459 20.358C25.7351 20.358 22.6328 24.1662 22.6229 30.8381C22.603 37.5298 25.7152 41.4375 30.8459 41.4474ZM30.8459 37.8778C28.5092 37.8778 26.9979 35.5312 27.0078 30.8381C27.0178 26.2145 28.5192 23.8878 30.8459 23.8878C33.1626 23.8878 34.674 26.2145 34.674 30.8381C34.6839 35.5312 33.1726 37.8778 30.8459 37.8778Z" fill="black"/>
<g opacity="0.4">
<path d="M10 4C10 2.89543 10.8954 2 12 2C13.1046 2 14 2.89543 14 4V8C14 9.10457 13.1046 10 12 10C10.8954 10 10 9.10457 10 8V4Z" fill="black"/>
<path d="M34 4C34 2.89543 34.8954 2 36 2C37.1046 2 38 2.89543 38 4V8C38 9.10457 37.1046 10 36 10C34.8954 10 34 9.10457 34 8V4Z" fill="black"/>
</g>
<path fill-rule="evenodd" clip-rule="evenodd" d="M10 6.00869C7.52043 6.04456 6.11466 6.22849 5.17157 7.17157C4 8.34315 4 10.2288 4 14V16H44V14C44 10.2288 44 8.34315 42.8284 7.17157C41.8853 6.22849 40.4796 6.04456 38 6.00869V8C38 9.10457 37.1046 10 36 10C34.8954 10 34 9.10457 34 8V6H14V8C14 9.10457 13.1046 10 12 10C10.8954 10 10 9.10457 10 8V6.00869Z" fill="black"/>
</svg>

<svg xmlns="http://www.w3.org/2000/svg" width="48" height="48" fill="none" viewBox="0 0 48 48">
  <rect width="40" height="40" x="4" y="6" fill="#000" opacity=".2" rx="4"/>
  <path fill="#000" d="M18.022 20.636h-4.047l-5.041 3.192v3.818l4.663-2.923h.12V41h4.305V20.636zm12.824 20.811c5.12 0 8.213-3.897 8.223-10.609.01-6.662-3.122-10.48-8.223-10.48-5.11 0-8.213 3.808-8.223 10.48-.02 6.692 3.092 10.6 8.223 10.61zm0-3.57c-2.337 0-3.848-2.346-3.838-7.039.01-4.623 1.511-6.95 3.838-6.95 2.317 0 3.828 2.326 3.828 6.95.01 4.693-1.501 7.04-3.828 7.04z"/>
  <g opacity=".4">
    <path fill="#000" d="M10 4a2 2 0 114 0v4a2 2 0 11-4 0V4zM34 4a2 2 0 114 0v4a2 2 0 11-4 0V4z"/>
  </g>
  <path fill="#000" fill-rule="evenodd" d="M10 6.009c-2.48.036-3.885.22-4.828 1.163C4 8.343 4 10.229 4 14v2h40v-2c0-3.771 0-5.657-1.172-6.828-.943-.944-2.348-1.127-4.828-1.163V8a2 2 0 11-4 0V6H14v2a2 2 0 11-4 0V6.009z" clip-rule="evenodd"/>
</svg>
